icons/folder_type_notebooks_opened.svg

<svg xmlns="http://www.w3.org/2000/svg" xml:space="preserve" viewBox="0 0 32 32"><path fill="#969696" d="M27.4 5.5h-9.2l-2.1 4.2H4.3v16.8h25.2v-21Zm0 18.7H6.6V11.8h20.8Zm0-14.5h-8.2l1-2.1h7.1v2.1Z"/><path fill="#969696" d="M25.7 13.7H.5l3.8 12.8h25.2z"/><path fill="#767677" d="M30.809 9.233a1.383 1.383 0 1 1-1.44-1.3 1.367 1.367 0 0 1 1.44 1.297z"/><path fill="#f37726" d="M22.74 25.213c-3.673 0-6.9-1.318-8.569-3.265a9.136 9.136 0 0 0 17.138 0c-1.665 1.946-4.88 3.265-8.569 3.265zM22.74 12.556c3.673 0 6.9 1.318 8.569 3.264a9.136 9.136 0 0 0-17.138 0c1.669-1.95 4.88-3.264 8.569-3.264z"/><path fill="#9e9e9e" d="M17.686 29a1.726 1.726 0 1 1-.164-.654 1.743 1.743 0 0 1 .164.655z"/><path fill="#616262" d="M14.588 12.112a1.003 1.003 0 1 1 .976-1.044 1.016 1.016 0 0 1-.976 1.044z"/></svg>

<svg version="1.1" viewBox="0 0 32 32" xml:space="preserve" xmlns="http://www.w3.org/2000/svg"><title>folder_type_notebooks_opened</title><path d="M27.4,5.5H18.2L16.1,9.7H4.3V26.5H29.5V5.5Zm0,18.7H6.6V11.8H27.4Zm0-14.5H19.2l1-2.1h7.1V9.7Z" fill="#969696"/><polygon points="25.7 13.7 0.5 13.7 4.3 26.5 29.5 26.5" fill="#969696"/><g transform="matrix(.81851 0 0 .81851 9.3369 6.2961)"><path d="m26.233 3.588a1.69 1.69 0 1 1-1.76-1.588 1.67 1.67 0 0 1 1.76 1.585z" fill="#767677"/><path d="m16.375 23.111c-4.487 0-8.43-1.61-10.469-3.988a11.162 11.162 0 0 0 20.938 0c-2.034 2.377-5.962 3.988-10.469 3.988z" fill="#f37726"/><path d="m16.375 7.648c4.487 0 8.43 1.61 10.469 3.988a11.162 11.162 0 0 0-20.938 0c2.039-2.383 5.963-3.988 10.469-3.988z" fill="#f37726"/><path d="m10.2 27.739a2.109 2.109 0 1 1-0.2-0.8 2.129 2.129 0 0 1 0.2 0.8z" fill="#9e9e9e"/><path d="m6.416 7.106a1.226 1.226 0 1 1 1.192-1.276 1.241 1.241 0 0 1-1.192 1.276z" fill="#616262"/></g></svg>
